X: 1
T: Tobin's Favourite
R: jig
M: 6/8
L: 1/8
K: Dmaj
AF|DFA dcd|ecA cde|fdf gfg|ecA GFE|
DFA dcd|ecA cde|(4fgaf gec|edc d:||
d2|dfa agf|(4efge efg|fdf gfg|ecA GFE|
DFA dcd|ecA cde|(4fgaf gec|edc d:||


Tune 308	Setting 13074

